azure-patterns/svg-app-center-mono.svg

<svg xmlns="http://www.w3.org/2000/svg" viewBox="0 0 124 124"><path d="M93.2 123.89L.3 93l92.84 13.55V.25l31 12.86v98zm-61.95-103l11.6 2.58V42L62.2 28.59v15.46L42.85 54.36l19.35 10.3v15.46l-19.35-13.4v18.55l-11.6 2.58-20.63-18v-7.77l11.9-7.72-11.9-7.73V38.9zM16.81 42l14.44 7.2v-18zm14.44 35.54v-18l-14.44 7.18zm31-48.95l15.47 5.16V75L62.2 80.12z"/></svg>

<svg xmlns="http://www.w3.org/2000/svg" viewBox="0 0 124 124">
                                
                            
  <path d="M93.2,123.89.3,93l92.84,13.55V.25l31,12.86v98Zm-61.95-103,11.6,2.58V42L62.2,28.59V44.05L42.85,54.36,62.2,64.66V80.12L42.85,66.72V85.27l-11.6,2.58-20.63-18V62.08l11.9-7.72-11.9-7.73V38.9ZM16.81,42,31.25,49.2v-18ZM31.25,77.54v-18L16.81,66.72Zm31-48.95,15.47,5.16V75L62.2,80.12Z"></path>
</svg>
